azure-patterns/svg-hdinsight-dark.svg

<svg xmlns="http://www.w3.org/2000/svg" viewBox="0 0 156 157">
                                
                            
  <path d="M32.23 78.0154C34.035 78.0154 35.84 78.0154 36.6136 78.0154L43.5757 65.6382L54.1479 47.0725C49.7643 40.8839 47.1857 34.6953 47.1857 26.7017H29.3935L7.47559 65.6382L17.2742 82.399C21.6578 79.8204 26.8149 78.0154 32.23 78.0154Z" fill="#1A1A1F"></path>
  <path d="M91.7309 32.7936C94.892 25.1623 91.2681 16.4134 83.6369 13.2524C76.0056 10.0913 67.2567 13.7152 64.0956 21.3464C60.9346 28.9777 64.5584 37.7266 72.1897 40.8876C79.821 44.0487 88.5699 40.4248 91.7309 32.7936Z" fill="#1A1A1F"></path>
  <path d="M123.77 123.914C132.03 123.914 138.726 117.218 138.726 108.958C138.726 100.698 132.03 94.0024 123.77 94.0024C115.51 94.0024 108.814 100.698 108.814 108.958C108.814 117.218 115.51 123.914 123.77 123.914Z" fill="#1A1A1F"></path>
  <path d="M32.2302 123.914C40.49 123.914 47.186 117.218 47.186 108.958C47.186 100.698 40.49 94.0024 32.2302 94.0024C23.9703 94.0024 17.2744 100.698 17.2744 108.958C17.2744 117.218 23.9703 123.914 32.2302 123.914Z" fill="#1A1A1F"></path>
  <path d="M126.348 26.9595H108.814C108.814 33.9216 106.235 41.1417 100.82 47.3303L109.072 61.7703L111.392 65.6382L118.355 78.0154C120.16 78.0154 121.965 78.0154 122.738 78.0154C128.153 78.0154 133.31 79.8204 137.694 82.399L148.008 65.8961L148.266 65.6382L126.348 26.9595Z" fill="#1A1A1F"></path>
  <path d="M94.6319 117.726H75.2926H61.3682C58.7897 124.688 54.4061 131.908 47.186 135.26L55.1796 149.442H95.9212H99.2734L107.267 135.26C101.852 130.876 96.4369 124.688 94.6319 117.726Z" fill="#1A1A1F"></path>
  <path d="M97.2106 67.4431L90.2484 55.3237C82.2548 58.9337 73.4876 58.9337 65.494 55.3237L49.5068 83.4303C56.469 88.8453 60.8526 95.8075 61.884 104.575H74.5191H92.827C93.6006 95.8075 99.0156 88.5874 105.978 83.4303L97.2106 67.4431Z" fill="#1A1A1F"></path>
</svg>

<svg xmlns="http://www.w3.org/2000/svg" viewBox="0 0 156 157"><path d="M32.23 78.015h4.384l6.962-12.377 10.572-18.566c-4.384-6.188-6.962-12.377-6.962-20.37H29.393L7.476 65.638 17.274 82.4c4.384-2.579 9.54-4.384 14.956-4.384zM91.73 32.794c3.162-7.632-.462-16.38-8.093-19.542-7.631-3.16-16.38.463-19.541 8.094-3.161 7.632.462 16.38 8.094 19.542 7.631 3.16 16.38-.463 19.54-8.094zM123.77 123.914c8.26 0 14.956-6.696 14.956-14.956s-6.696-14.956-14.956-14.956-14.956 6.696-14.956 14.956 6.696 14.956 14.956 14.956zM32.23 123.914c8.26 0 14.956-6.696 14.956-14.956S40.49 94.002 32.23 94.002s-14.956 6.696-14.956 14.956 6.696 14.956 14.956 14.956zM126.348 26.96h-17.534c0 6.962-2.579 14.182-7.994 20.37l8.252 14.44 2.32 3.868 6.963 12.377h4.383c5.415 0 10.572 1.805 14.956 4.384l10.314-16.503.258-.258-21.918-38.679zM94.632 117.726H61.368c-2.578 6.962-6.962 14.182-14.182 17.534l7.994 14.182H99.273l7.994-14.182c-5.415-4.384-10.83-10.572-12.635-17.534zM97.21 67.443l-6.962-12.12c-7.993 3.61-16.76 3.61-24.754 0L49.507 83.43c6.962 5.415 11.346 12.377 12.377 21.145H92.827c.774-8.767 6.189-15.988 13.151-21.145l-8.767-15.987z" fill="#1A1A1F"/></svg>
